images/icons/white-logo-4.svg

<svg width="80" height="55" viewBox="0 0 80 55" fill="none" xmlns="http://www.w3.org/2000/svg">
<path d="M5.17734 51.1311V39.2857H3.2V51.1311H5.17734Z" fill="white"/>
<path d="M6.38759 47.1827C6.38759 49.6027 8.0408 51.3221 10.553 51.3221C13.0651 51.3221 14.7183 49.6027 14.7183 47.1827C14.7183 44.7626 13.0651 43.0432 10.553 43.0432C8.0408 43.0432 6.38759 44.7626 6.38759 47.1827ZM8.38112 47.1827C8.38112 45.7657 9.24016 44.7786 10.553 44.7786C11.8658 44.7786 12.7248 45.7657 12.7248 47.1827C12.7248 48.5837 11.8658 49.5867 10.553 49.5867C9.24016 49.5867 8.38112 48.5837 8.38112 47.1827Z" fill="white"/>
<path d="M15.3834 47.0234C15.3834 49.3161 16.8906 50.972 19.1435 50.972C20.3105 50.972 21.3154 50.5102 21.8178 49.746V51.0834C21.8178 52.373 20.9912 53.2328 19.6135 53.2328C18.3818 53.2328 17.539 52.6436 17.4255 51.6088H15.432C15.6913 53.6626 17.2958 55 19.5001 55C22.0934 55 23.7465 53.3282 23.7465 50.7331V43.2661H21.9961L21.8826 44.3327C21.3964 43.5048 20.3915 43.0113 19.2083 43.0113C16.923 43.0113 15.3834 44.7148 15.3834 47.0234ZM17.3931 46.9757C17.3931 45.6701 18.2359 44.7148 19.4839 44.7148C20.8454 44.7148 21.753 45.6861 21.753 46.9757C21.753 48.2812 20.8454 49.2842 19.4839 49.2842C18.2521 49.2842 17.3931 48.2971 17.3931 46.9757Z" fill="white"/>
<path d="M24.725 47.1827C24.725 49.6027 26.3782 51.3221 28.8904 51.3221C31.4026 51.3221 33.0558 49.6027 33.0558 47.1827C33.0558 44.7626 31.4026 43.0432 28.8904 43.0432C26.3782 43.0432 24.725 44.7626 24.725 47.1827ZM26.7186 47.1827C26.7186 45.7657 27.5776 44.7786 28.8904 44.7786C30.2032 44.7786 31.0622 45.7657 31.0622 47.1827C31.0622 48.5837 30.2032 49.5867 28.8904 49.5867C27.5776 49.5867 26.7186 48.5837 26.7186 47.1827Z" fill="white"/>
<path d="M35.1957 41.658C35.844 41.658 36.3789 41.1485 36.3789 40.4957C36.3789 39.8589 35.844 39.3494 35.1957 39.3494C34.5312 39.3494 34.0287 39.8589 34.0287 40.4957C34.0287 41.1485 34.5312 41.658 35.1957 41.658ZM34.207 51.1311H36.1844V43.2661H34.207V51.1311Z" fill="white"/>
<path d="M37.9167 54.7771H39.8454V50.0485C40.3478 50.8605 41.4338 51.3381 42.6331 51.3381C44.9994 51.3381 46.4095 49.5549 46.377 47.103C46.3285 44.6352 44.886 43.0272 42.6169 43.0272C41.4014 43.0272 40.2992 43.5526 39.813 44.4601L39.6995 43.2661H37.9167V54.7771ZM39.9264 47.1986C39.9264 45.7816 40.8017 44.7944 42.1793 44.7944C43.557 44.7944 44.3835 45.7975 44.3835 47.1986C44.3835 48.5996 43.557 49.5867 42.1793 49.5867C40.8017 49.5867 39.9264 48.6156 39.9264 47.1986Z" fill="white"/>
<path d="M46.8791 48.7748C46.944 50.3351 48.1758 51.3381 50.0882 51.3381C51.9683 51.3381 53.2487 50.351 53.2487 48.8226C53.2487 47.6922 52.5356 46.9279 51.2228 46.6095L49.8127 46.2751C49.213 46.1159 48.8078 45.909 48.8078 45.3995C48.8078 44.8582 49.2454 44.4761 49.9586 44.4761C50.7042 44.4761 51.1904 44.89 51.1904 45.5746H52.9894C52.9246 44.0143 51.7414 43.0272 50.0072 43.0272C48.2892 43.0272 47.0088 44.0143 47.0088 45.5109C47.0088 46.5299 47.6085 47.3737 49.1482 47.7717L50.5421 48.122C51.0607 48.2653 51.3849 48.5041 51.3849 48.9499C51.3849 49.5709 50.7852 49.8574 50.0558 49.8574C49.1806 49.8574 48.6782 49.4594 48.6782 48.7748H46.8791Z" fill="white"/>
<path d="M57.3502 51.3381C58.4361 51.3381 59.4734 50.8445 59.9434 50.1121L60.073 51.1311H61.9207V43.2661H59.9434V47.3896C59.9434 48.8066 59.3923 49.6027 58.0958 49.6027C57.0909 49.6027 56.3939 49.1251 56.3939 47.5011V43.2661H54.4166V48.1857C54.4166 50.0644 55.4538 51.3381 57.3502 51.3381Z" fill="white"/>
<path d="M65.6433 51.1311V46.6095C65.6433 45.3358 66.405 44.7308 67.3451 44.7308C68.2851 44.7308 68.901 45.3198 68.901 46.4344V51.1311H70.8298V46.6254C70.8298 45.3358 71.5753 44.7308 72.5154 44.7308C73.4716 44.7308 74.0875 45.3198 74.0875 46.4344V51.1311H76V45.9886C76 44.1736 74.9789 43.0272 73.034 43.0272C71.8184 43.0272 70.8622 43.6004 70.4732 44.5238C70.0356 43.6004 69.1604 43.0272 67.8314 43.0272C66.8913 43.0272 66.0485 43.4571 65.5785 44.1576L65.4812 43.2661H63.666V51.1311H65.6433Z" fill="white"/>
<path d="M34.7896 28.5625C32.1846 33.1666 26.8807 35.3571 21.5177 35.3571H0C22.4 32.6071 38 21.6071 40 6.28571C42 21.6071 57.6 32.6071 80 35.3571H58.4823C53.1193 35.3571 47.8154 33.1666 45.2104 28.5625C42.3909 23.5793 40.5946 17.9405 40 11.7857C39.4054 17.9405 37.6091 23.5793 34.7896 28.5625Z" fill="white"/>
<path d="M22.4841 26.9353C21.2275 27.6301 19.9058 28.2827 18.5218 28.8906C17.7356 26.2234 17.4463 23.4251 17.677 20.6376C17.9822 16.9498 19.1881 13.3945 21.1878 10.2868C23.1875 7.17907 25.9193 4.61465 29.1412 2.82078C32.3631 1.02691 35.9758 0.0589361 39.659 0.00260823C43.3423 -0.0537275 46.9826 0.803322 50.2574 2.49783C53.5322 4.19234 56.3404 6.67197 58.4333 9.71716C60.5262 12.7624 61.8393 16.2791 62.2562 19.9557C62.597 22.963 62.3298 26.0016 61.4782 28.8906C60.0942 28.2827 58.7725 27.63 57.5159 26.9352C58.0457 24.8231 58.1942 22.6257 57.9474 20.4487C57.6112 17.4838 56.5523 14.6479 54.8646 12.1923C53.1769 9.73673 50.9123 7.73709 48.2715 6.37065C45.6307 5.00419 42.6952 4.31308 39.725 4.3585C36.7548 4.40392 33.8416 5.1845 31.2435 6.63104C28.6454 8.07761 26.4424 10.1455 24.8298 12.6517C23.2173 15.1578 22.2449 18.0247 21.9988 20.9985C21.8334 22.9974 21.9994 25.0032 22.4841 26.9353Z" fill="white"/>
</svg>

<svg width="80" height="55" fill="none" xmlns="http://www.w3.org/2000/svg"><path d="M5.177 51.131V39.286H3.2V51.13h1.977ZM6.388 47.183c0 2.42 1.653 4.14 4.165 4.14s4.165-1.72 4.165-4.14-1.653-4.14-4.165-4.14-4.165 1.72-4.165 4.14Zm1.993 0c0-1.417.86-2.404 2.172-2.404 1.313 0 2.172.987 2.172 2.404 0 1.4-.86 2.404-2.172 2.404-1.313 0-2.172-1.003-2.172-2.404ZM15.383 47.023c0 2.293 1.508 3.949 3.76 3.949 1.168 0 2.172-.462 2.675-1.226v1.337c0 1.29-.827 2.15-2.205 2.15-1.231 0-2.074-.59-2.188-1.624h-1.993C15.692 53.663 17.296 55 19.5 55c2.593 0 4.247-1.672 4.247-4.267v-7.467h-1.75l-.114 1.067c-.487-.828-1.491-1.322-2.675-1.322-2.285 0-3.825 1.704-3.825 4.012Zm2.01-.047c0-1.306.843-2.261 2.09-2.261 1.362 0 2.27.971 2.27 2.26 0 1.306-.908 2.31-2.27 2.31-1.23 0-2.09-.988-2.09-2.31ZM24.725 47.183c0 2.42 1.653 4.14 4.165 4.14 2.513 0 4.166-1.72 4.166-4.14s-1.653-4.14-4.166-4.14c-2.512 0-4.165 1.72-4.165 4.14Zm1.994 0c0-1.417.859-2.404 2.171-2.404 1.313 0 2.172.987 2.172 2.404 0 1.4-.859 2.404-2.172 2.404-1.312 0-2.171-1.003-2.171-2.404ZM35.196 41.658a1.17 1.17 0 0 0 1.183-1.162c0-.637-.535-1.147-1.183-1.147-.665 0-1.167.51-1.167 1.147 0 .652.502 1.162 1.167 1.162Zm-.989 9.473h1.977v-7.865h-1.977v7.865ZM37.917 54.777h1.928v-4.729c.503.813 1.589 1.29 2.788 1.29 2.366 0 3.776-1.783 3.744-4.235-.049-2.468-1.491-4.076-3.76-4.076-1.216 0-2.318.526-2.804 1.433l-.114-1.194h-1.782v11.511Zm2.01-7.578c0-1.417.875-2.405 2.252-2.405 1.378 0 2.204 1.004 2.204 2.405 0 1.4-.826 2.388-2.204 2.388-1.377 0-2.253-.971-2.253-2.388ZM46.88 48.775c.064 1.56 1.296 2.563 3.208 2.563 1.88 0 3.16-.987 3.16-2.515 0-1.13-.712-1.895-2.025-2.214l-1.41-.334c-.6-.16-1.005-.366-1.005-.875 0-.542.437-.924 1.15-.924.746 0 1.232.414 1.232 1.099h1.8c-.065-1.56-1.249-2.548-2.983-2.548-1.718 0-2.998.987-2.998 2.484 0 1.019.6 1.863 2.14 2.26l1.393.351c.519.143.843.382.843.828 0 .62-.6.907-1.33.907-.874 0-1.377-.398-1.377-1.082H46.88ZM57.35 51.338c1.086 0 2.123-.494 2.593-1.226l.13 1.02h1.848v-7.866h-1.978v4.124c0 1.417-.55 2.213-1.847 2.213-1.005 0-1.702-.478-1.702-2.102v-4.235h-1.977v4.92c0 1.878 1.037 3.152 2.933 3.152ZM65.643 51.131V46.61c0-1.273.762-1.878 1.702-1.878s1.556.589 1.556 1.703v4.697h1.929v-4.506c0-1.29.745-1.894 1.685-1.894.957 0 1.573.589 1.573 1.703v4.697H76V45.99c0-1.815-1.021-2.962-2.966-2.962-1.216 0-2.172.573-2.56 1.497-.438-.924-1.314-1.497-2.643-1.497-.94 0-1.782.43-2.252 1.13l-.098-.89h-1.815v7.864h1.977ZM34.79 28.563c-2.605 4.604-7.91 6.794-13.272 6.794H0c22.4-2.75 38-13.75 40-29.071 2 15.321 17.6 26.321 40 29.071H58.482c-5.363 0-10.667-2.19-13.272-6.794-2.82-4.984-4.615-10.622-5.21-16.777-.595 6.155-2.39 11.793-5.21 16.776Z" fill="#fff"/><path d="M22.484 26.935a48.471 48.471 0 0 1-3.962 1.956 22.6 22.6 0 0 1 2.666-18.604c2-3.108 4.731-5.672 7.953-7.466a22.317 22.317 0 0 1 21.116-.323 22.431 22.431 0 0 1 8.176 7.22 22.566 22.566 0 0 1 3.823 10.238c.341 3.007.074 6.046-.778 8.935a48.472 48.472 0 0 1-3.962-1.956 18.225 18.225 0 0 0-2.651-14.743 18.09 18.09 0 0 0-6.593-5.821 17.997 17.997 0 0 0-17.028.26 18.097 18.097 0 0 0-6.414 6.02 18.2 18.2 0 0 0-2.346 14.284Z" fill="#fff"/></svg>
